images/50541087.svg

<?xml version="1.0" encoding="UTF-8"?>
<svg xmlns="http://www.w3.org/2000/svg" xmlns:xlink="http://www.w3.org/1999/xlink" width="300pt" height="300pt" viewBox="0 0 300 300" version="1.1">
<defs>
<g>
<symbol overflow="visible" id="glyph0-0">
<path style="stroke:none;" d="M 0.546875 1.9375 L 0.546875 -7.75 L 6.046875 -7.75 L 6.046875 1.9375 Z M 1.171875 1.328125 L 5.4375 1.328125 L 5.4375 -7.140625 L 1.171875 -7.140625 Z M 1.171875 1.328125 "/>
</symbol>
<symbol overflow="visible" id="glyph0-1">
<path style="stroke:none;" d="M 1.078125 -8.015625 L 5.6875 -8.015625 L 5.6875 -7.109375 L 2.171875 -7.109375 L 2.171875 -4.75 L 5.34375 -4.75 L 5.34375 -3.828125 L 2.171875 -3.828125 L 2.171875 0 L 1.078125 0 Z M 1.078125 -8.015625 "/>
</symbol>
<symbol overflow="visible" id="glyph0-2">
<path style="stroke:none;" d="M 1.078125 -8.015625 L 2.546875 -8.015625 L 6.09375 -1.3125 L 6.09375 -8.015625 L 7.15625 -8.015625 L 7.15625 0 L 5.6875 0 L 2.125 -6.703125 L 2.125 0 L 1.078125 0 Z M 1.078125 -8.015625 "/>
</symbol>
<symbol overflow="visible" id="glyph0-3">
<path style="stroke:none;" d="M 1.078125 -8.015625 L 2.171875 -8.015625 L 2.171875 -4.734375 L 6.109375 -4.734375 L 6.109375 -8.015625 L 7.1875 -8.015625 L 7.1875 0 L 6.109375 0 L 6.109375 -3.8125 L 2.171875 -3.8125 L 2.171875 0 L 1.078125 0 Z M 1.078125 -8.015625 "/>
</symbol>
</g>
</defs>
<g id="surface10973">
<rect x="0" y="0" width="300" height="300" style="fill:rgb(100%,100%,100%);fill-opacity:1;stroke:none;"/>
<path style="fill:none;stroke-width:1.2;stroke-linecap:butt;stroke-linejoin:miter;stroke:rgb(20%,80%,80%);stroke-opacity:1;stroke-miterlimit:10;" d="M 35.25 174.511719 L 48.96875 172.367188 "/>
<path style="fill:none;stroke-width:1.2;stroke-linecap:butt;stroke-linejoin:miter;stroke:rgb(0%,0%,0%);stroke-opacity:1;stroke-miterlimit:10;" d="M 48.96875 172.367188 L 62.6875 170.226562 "/>
<path style=" stroke:none;fill-rule:nonzero;fill:rgb(100%,100%,100%);fill-opacity:1;" d="M 28.25 168.011719 L 35.25 168.011719 L 35.25 181.011719 L 28.25 181.011719 Z M 28.25 168.011719 "/>
<g style="fill:rgb(20%,80%,80%);fill-opacity:1;">
  <use xlink:href="#glyph0-1" x="28.25" y="177.913086"/>
</g>
<path style="fill:none;stroke-width:1.2;stroke-linecap:butt;stroke-linejoin:miter;stroke:rgb(0%,0%,0%);stroke-opacity:1;stroke-miterlimit:10;" d="M 62.6875 170.226562 L 72.691406 144.320312 "/>
<path style="fill:none;stroke-width:1.2;stroke-linecap:butt;stroke-linejoin:miter;stroke:rgb(0%,0%,0%);stroke-opacity:1;stroke-miterlimit:10;" d="M 69.78125 169.988281 L 77.789062 149.265625 "/>
<path style="fill:none;stroke-width:1.2;stroke-linecap:butt;stroke-linejoin:miter;stroke:rgb(0%,0%,0%);stroke-opacity:1;stroke-miterlimit:10;" d="M 80.117188 191.84375 L 62.6875 170.226562 "/>
<path style="fill:none;stroke-width:1.2;stroke-linecap:butt;stroke-linejoin:miter;stroke:rgb(0%,0%,0%);stroke-opacity:1;stroke-miterlimit:10;" d="M 72.691406 144.320312 L 86.410156 142.179688 "/>
<path style="fill:none;stroke-width:1.2;stroke-linecap:butt;stroke-linejoin:miter;stroke:rgb(0%,0%,100%);stroke-opacity:1;stroke-miterlimit:10;" d="M 86.410156 142.179688 L 100.128906 140.035156 "/>
<path style="fill:none;stroke-width:1.2;stroke-linecap:butt;stroke-linejoin:miter;stroke:rgb(0%,0%,100%);stroke-opacity:1;stroke-miterlimit:10;" d="M 100.128906 140.035156 L 108.84375 150.84375 "/>
<path style="fill:none;stroke-width:1.2;stroke-linecap:butt;stroke-linejoin:miter;stroke:rgb(0%,0%,0%);stroke-opacity:1;stroke-miterlimit:10;" d="M 108.84375 150.84375 L 117.558594 161.652344 "/>
<path style="fill:none;stroke-width:1.2;stroke-linecap:butt;stroke-linejoin:miter;stroke:rgb(0%,0%,100%);stroke-opacity:1;stroke-miterlimit:10;" d="M 96.785156 146.296875 L 103.757812 154.945312 "/>
<path style="fill:none;stroke-width:1.2;stroke-linecap:butt;stroke-linejoin:miter;stroke:rgb(0%,0%,0%);stroke-opacity:1;stroke-miterlimit:10;" d="M 103.757812 154.945312 L 110.730469 163.59375 "/>
<path style=" stroke:none;fill-rule:nonzero;fill:rgb(100%,100%,100%);fill-opacity:1;" d="M 96.128906 133.535156 L 104.128906 133.535156 L 104.128906 146.535156 L 96.128906 146.535156 Z M 96.128906 133.535156 "/>
<g style="fill:rgb(0%,0%,100%);fill-opacity:1;">
  <use xlink:href="#glyph0-2" x="96.128906" y="143.436523"/>
</g>
<path style="fill:none;stroke-width:1.2;stroke-linecap:butt;stroke-linejoin:miter;stroke:rgb(0%,0%,0%);stroke-opacity:1;stroke-miterlimit:10;" d="M 117.558594 161.652344 L 112.558594 174.605469 "/>
<path style="fill:none;stroke-width:1.2;stroke-linecap:butt;stroke-linejoin:miter;stroke:rgb(0%,0%,100%);stroke-opacity:1;stroke-miterlimit:10;" d="M 112.558594 174.605469 L 107.554688 187.558594 "/>
<path style=" stroke:none;fill-rule:nonzero;fill:rgb(0%,0%,0%);fill-opacity:1;" d="M 144.996094 157.367188 L 116.804688 156.8125 L 118.316406 166.496094 Z M 144.996094 157.367188 "/>
<path style="fill:none;stroke-width:1.2;stroke-linecap:butt;stroke-linejoin:miter;stroke:rgb(0%,0%,100%);stroke-opacity:1;stroke-miterlimit:10;" d="M 107.554688 187.558594 L 93.835938 189.699219 "/>
<path style="fill:none;stroke-width:1.2;stroke-linecap:butt;stroke-linejoin:miter;stroke:rgb(0%,0%,0%);stroke-opacity:1;stroke-miterlimit:10;" d="M 93.835938 189.699219 L 80.117188 191.84375 "/>
<path style="fill:none;stroke-width:1.2;stroke-linecap:butt;stroke-linejoin:miter;stroke:rgb(0%,0%,100%);stroke-opacity:1;stroke-miterlimit:10;" d="M 103.800781 181.53125 L 92.828125 183.246094 "/>
<path style="fill:none;stroke-width:1.2;stroke-linecap:butt;stroke-linejoin:miter;stroke:rgb(0%,0%,0%);stroke-opacity:1;stroke-miterlimit:10;" d="M 92.828125 183.246094 L 81.851562 184.957031 "/>
<path style=" stroke:none;fill-rule:nonzero;fill:rgb(100%,100%,100%);fill-opacity:1;" d="M 103.554688 181.058594 L 111.554688 181.058594 L 111.554688 194.058594 L 103.554688 194.058594 Z M 103.554688 181.058594 "/>
<g style="fill:rgb(0%,0%,100%);fill-opacity:1;">
  <use xlink:href="#glyph0-2" x="103.554688" y="190.959961"/>
</g>
<path style="fill:none;stroke-width:1.2;stroke-linecap:butt;stroke-linejoin:miter;stroke:rgb(0%,0%,0%);stroke-opacity:1;stroke-miterlimit:10;" d="M 144.996094 157.367188 L 150 144.414062 "/>
<path style="fill:none;stroke-width:1.2;stroke-linecap:butt;stroke-linejoin:miter;stroke:rgb(0%,0%,100%);stroke-opacity:1;stroke-miterlimit:10;" d="M 150 144.414062 L 155.003906 131.460938 "/>
<path style="fill:none;stroke-width:1.2;stroke-linecap:butt;stroke-linejoin:miter;stroke:rgb(0%,0%,0%);stroke-opacity:1;stroke-miterlimit:10;" d="M 144.996094 157.367188 L 162.425781 178.984375 "/>
<path style="fill:none;stroke-width:1.2;stroke-linecap:butt;stroke-linejoin:miter;stroke:rgb(0%,0%,100%);stroke-opacity:1;stroke-miterlimit:10;" d="M 155.003906 131.460938 L 168.722656 129.320312 "/>
<path style="fill:none;stroke-width:1.2;stroke-linecap:butt;stroke-linejoin:miter;stroke:rgb(0%,0%,0%);stroke-opacity:1;stroke-miterlimit:10;" d="M 168.722656 129.320312 L 182.441406 127.175781 "/>
<path style=" stroke:none;fill-rule:nonzero;fill:rgb(100%,100%,100%);fill-opacity:1;" d="M 147.003906 124.960938 L 164.003906 124.960938 L 164.003906 137.960938 L 147.003906 137.960938 Z M 147.003906 124.960938 "/>
<g style="fill:rgb(0%,0%,100%);fill-opacity:1;">
  <use xlink:href="#glyph0-2" x="147.003906" y="134.862305"/>
  <use xlink:href="#glyph0-3" x="154.987305" y="134.862305"/>
</g>
<path style="fill:none;stroke-width:1.2;stroke-linecap:butt;stroke-linejoin:miter;stroke:rgb(0%,0%,0%);stroke-opacity:1;stroke-miterlimit:10;" d="M 182.441406 127.175781 L 191.15625 137.984375 "/>
<path style="fill:none;stroke-width:1.2;stroke-linecap:butt;stroke-linejoin:miter;stroke:rgb(0%,0%,100%);stroke-opacity:1;stroke-miterlimit:10;" d="M 191.15625 137.984375 L 199.871094 148.792969 "/>
<path style="fill:none;stroke-width:1.2;stroke-linecap:butt;stroke-linejoin:miter;stroke:rgb(0%,0%,0%);stroke-opacity:1;stroke-miterlimit:10;" d="M 189.269531 125.238281 L 196.242188 133.882812 "/>
<path style="fill:none;stroke-width:1.2;stroke-linecap:butt;stroke-linejoin:miter;stroke:rgb(0%,0%,100%);stroke-opacity:1;stroke-miterlimit:10;" d="M 196.242188 133.882812 L 203.214844 142.53125 "/>
<path style="fill:none;stroke-width:1.2;stroke-linecap:butt;stroke-linejoin:miter;stroke:rgb(0%,0%,0%);stroke-opacity:1;stroke-miterlimit:10;" d="M 192.445312 101.273438 L 182.441406 127.175781 "/>
<path style="fill:none;stroke-width:1.2;stroke-linecap:butt;stroke-linejoin:miter;stroke:rgb(0%,0%,100%);stroke-opacity:1;stroke-miterlimit:10;" d="M 199.871094 148.792969 L 213.589844 146.652344 "/>
<path style="fill:none;stroke-width:1.2;stroke-linecap:butt;stroke-linejoin:miter;stroke:rgb(0%,0%,0%);stroke-opacity:1;stroke-miterlimit:10;" d="M 213.589844 146.652344 L 227.308594 144.507812 "/>
<path style=" stroke:none;fill-rule:nonzero;fill:rgb(100%,100%,100%);fill-opacity:1;" d="M 195.871094 142.292969 L 203.871094 142.292969 L 203.871094 155.292969 L 195.871094 155.292969 Z M 195.871094 142.292969 "/>
<g style="fill:rgb(0%,0%,100%);fill-opacity:1;">
  <use xlink:href="#glyph0-2" x="195.871094" y="152.194336"/>
</g>
<path style="fill:none;stroke-width:1.2;stroke-linecap:butt;stroke-linejoin:miter;stroke:rgb(0%,0%,0%);stroke-opacity:1;stroke-miterlimit:10;" d="M 227.308594 144.507812 L 236.023438 155.316406 "/>
<path style="fill:none;stroke-width:1.2;stroke-linecap:butt;stroke-linejoin:miter;stroke:rgb(0%,0%,100%);stroke-opacity:1;stroke-miterlimit:10;" d="M 236.023438 155.316406 L 244.738281 166.125 "/>
<path style="fill:none;stroke-width:1.2;stroke-linecap:butt;stroke-linejoin:miter;stroke:rgb(0%,0%,0%);stroke-opacity:1;stroke-miterlimit:10;" d="M 227.308594 144.507812 L 237.3125 118.601562 "/>
<path style="fill:none;stroke-width:1.2;stroke-linecap:butt;stroke-linejoin:miter;stroke:rgb(0%,0%,0%);stroke-opacity:1;stroke-miterlimit:10;" d="M 222.210938 139.5625 L 230.21875 118.839844 "/>
<path style="fill:none;stroke-width:1.2;stroke-linecap:butt;stroke-linejoin:miter;stroke:rgb(0%,0%,100%);stroke-opacity:1;stroke-miterlimit:10;" d="M 244.738281 166.125 L 239.734375 179.078125 "/>
<path style="fill:none;stroke-width:1.2;stroke-linecap:butt;stroke-linejoin:miter;stroke:rgb(0%,0%,0%);stroke-opacity:1;stroke-miterlimit:10;" d="M 239.734375 179.078125 L 234.730469 192.027344 "/>
<path style=" stroke:none;fill-rule:nonzero;fill:rgb(100%,100%,100%);fill-opacity:1;" d="M 236.738281 159.625 L 253.738281 159.625 L 253.738281 172.625 L 236.738281 172.625 Z M 236.738281 159.625 "/>
<g style="fill:rgb(0%,0%,100%);fill-opacity:1;">
  <use xlink:href="#glyph0-2" x="236.738281" y="169.526367"/>
  <use xlink:href="#glyph0-3" x="244.72168" y="169.526367"/>
</g>
<path style="fill:none;stroke-width:1.2;stroke-linecap:butt;stroke-linejoin:miter;stroke:rgb(0%,0%,0%);stroke-opacity:1;stroke-miterlimit:10;" d="M 234.730469 192.027344 L 242.269531 203.691406 "/>
<path style="fill:none;stroke-width:1.2;stroke-linecap:butt;stroke-linejoin:miter;stroke:rgb(0%,0%,100%);stroke-opacity:1;stroke-miterlimit:10;" d="M 242.269531 203.691406 L 249.804688 215.351562 "/>
<path style="fill:none;stroke-width:1.2;stroke-linecap:butt;stroke-linejoin:miter;stroke:rgb(0%,0%,0%);stroke-opacity:1;stroke-miterlimit:10;" d="M 207.894531 199.160156 L 234.730469 192.027344 "/>
<path style="fill:none;stroke-width:1.2;stroke-linecap:butt;stroke-linejoin:miter;stroke:rgb(0%,0%,0%);stroke-opacity:1;stroke-miterlimit:10;" d="M 212.253906 204.761719 L 233.726562 199.058594 "/>
<path style="fill:none;stroke-width:1.2;stroke-linecap:butt;stroke-linejoin:miter;stroke:rgb(0%,0%,100%);stroke-opacity:1;stroke-miterlimit:10;" d="M 249.804688 215.351562 L 232.285156 236.894531 "/>
<path style=" stroke:none;fill-rule:nonzero;fill:rgb(100%,100%,100%);fill-opacity:1;" d="M 241.804688 208.851562 L 258.804688 208.851562 L 258.804688 221.851562 L 241.804688 221.851562 Z M 241.804688 208.851562 "/>
<g style="fill:rgb(0%,0%,100%);fill-opacity:1;">
  <use xlink:href="#glyph0-2" x="241.804688" y="218.75293"/>
  <use xlink:href="#glyph0-3" x="249.788086" y="218.75293"/>
</g>
<path style="fill:none;stroke-width:1.2;stroke-linecap:butt;stroke-linejoin:miter;stroke:rgb(0%,0%,100%);stroke-opacity:1;stroke-miterlimit:10;" d="M 232.285156 236.894531 L 219.332031 231.890625 "/>
<path style="fill:none;stroke-width:1.2;stroke-linecap:butt;stroke-linejoin:miter;stroke:rgb(0%,0%,0%);stroke-opacity:1;stroke-miterlimit:10;" d="M 219.332031 231.890625 L 206.382812 226.886719 "/>
<path style="fill:none;stroke-width:1.2;stroke-linecap:butt;stroke-linejoin:miter;stroke:rgb(0%,0%,100%);stroke-opacity:1;stroke-miterlimit:10;" d="M 232.050781 229.796875 L 221.6875 225.796875 "/>
<path style="fill:none;stroke-width:1.2;stroke-linecap:butt;stroke-linejoin:miter;stroke:rgb(0%,0%,0%);stroke-opacity:1;stroke-miterlimit:10;" d="M 221.6875 225.796875 L 211.324219 221.792969 "/>
<path style=" stroke:none;fill-rule:nonzero;fill:rgb(100%,100%,100%);fill-opacity:1;" d="M 228.285156 230.394531 L 236.285156 230.394531 L 236.285156 243.394531 L 228.285156 243.394531 Z M 228.285156 230.394531 "/>
<g style="fill:rgb(0%,0%,100%);fill-opacity:1;">
  <use xlink:href="#glyph0-2" x="228.285156" y="240.295898"/>
</g>
<path style="fill:none;stroke-width:1.2;stroke-linecap:butt;stroke-linejoin:miter;stroke:rgb(0%,0%,0%);stroke-opacity:1;stroke-miterlimit:10;" d="M 206.382812 226.886719 L 207.894531 199.160156 "/>
<path style="fill:none;stroke-width:1.2;stroke-linecap:butt;stroke-linejoin:miter;stroke:rgb(0%,0%,0%);stroke-opacity:1;stroke-miterlimit:10;" d="M 206.382812 226.886719 L 183.058594 241.964844 "/>
<path style="fill:none;stroke-width:1.2;stroke-linecap:butt;stroke-linejoin:miter;stroke:rgb(0%,0%,0%);stroke-opacity:1;stroke-miterlimit:10;" d="M 237.3125 118.601562 L 228.597656 107.792969 "/>
<path style="fill:none;stroke-width:1.2;stroke-linecap:butt;stroke-linejoin:miter;stroke:rgb(0%,0%,100%);stroke-opacity:1;stroke-miterlimit:10;" d="M 228.597656 107.792969 L 219.882812 96.984375 "/>
<path style="fill:none;stroke-width:1.2;stroke-linecap:butt;stroke-linejoin:miter;stroke:rgb(0%,0%,0%);stroke-opacity:1;stroke-miterlimit:10;" d="M 237.3125 118.601562 L 264.75 114.316406 "/>
<path style="fill:none;stroke-width:1.2;stroke-linecap:butt;stroke-linejoin:miter;stroke:rgb(0%,0%,100%);stroke-opacity:1;stroke-miterlimit:10;" d="M 219.882812 96.984375 L 206.164062 99.128906 "/>
<path style="fill:none;stroke-width:1.2;stroke-linecap:butt;stroke-linejoin:miter;stroke:rgb(0%,0%,0%);stroke-opacity:1;stroke-miterlimit:10;" d="M 206.164062 99.128906 L 192.445312 101.273438 "/>
<path style="fill:none;stroke-width:1.2;stroke-linecap:butt;stroke-linejoin:miter;stroke:rgb(0%,0%,100%);stroke-opacity:1;stroke-miterlimit:10;" d="M 218.148438 103.871094 L 207.171875 105.585938 "/>
<path style="fill:none;stroke-width:1.2;stroke-linecap:butt;stroke-linejoin:miter;stroke:rgb(0%,0%,0%);stroke-opacity:1;stroke-miterlimit:10;" d="M 207.171875 105.585938 L 196.199219 107.300781 "/>
<path style=" stroke:none;fill-rule:nonzero;fill:rgb(100%,100%,100%);fill-opacity:1;" d="M 215.882812 90.484375 L 223.882812 90.484375 L 223.882812 103.484375 L 215.882812 103.484375 Z M 215.882812 90.484375 "/>
<g style="fill:rgb(0%,0%,100%);fill-opacity:1;">
  <use xlink:href="#glyph0-2" x="215.882812" y="100.385742"/>
</g>
<path style="fill:none;stroke-width:1.2;stroke-linecap:butt;stroke-linejoin:miter;stroke:rgb(0%,0%,0%);stroke-opacity:1;stroke-miterlimit:10;" d="M 192.445312 101.273438 L 175.015625 79.652344 "/>
<path style="fill:none;stroke-width:1.2;stroke-linecap:butt;stroke-linejoin:miter;stroke:rgb(0%,0%,0%);stroke-opacity:1;stroke-miterlimit:10;" d="M 175.015625 79.652344 L 166.300781 68.84375 "/>
<path style="fill:none;stroke-width:1.2;stroke-linecap:butt;stroke-linejoin:miter;stroke:rgb(0%,0%,100%);stroke-opacity:1;stroke-miterlimit:10;" d="M 166.300781 68.84375 L 157.585938 58.035156 "/>
<path style="fill:none;stroke-width:1.2;stroke-linecap:butt;stroke-linejoin:miter;stroke:rgb(0%,0%,0%);stroke-opacity:1;stroke-miterlimit:10;" d="M 178.359375 73.390625 L 171.386719 64.742188 "/>
<path style="fill:none;stroke-width:1.2;stroke-linecap:butt;stroke-linejoin:miter;stroke:rgb(0%,0%,100%);stroke-opacity:1;stroke-miterlimit:10;" d="M 171.386719 64.742188 L 164.414062 56.097656 "/>
<path style="fill:none;stroke-width:1.2;stroke-linecap:butt;stroke-linejoin:miter;stroke:rgb(0%,0%,0%);stroke-opacity:1;stroke-miterlimit:10;" d="M 168.1875 81.59375 L 161.214844 72.945312 "/>
<path style="fill:none;stroke-width:1.2;stroke-linecap:butt;stroke-linejoin:miter;stroke:rgb(0%,0%,100%);stroke-opacity:1;stroke-miterlimit:10;" d="M 161.214844 72.945312 L 154.242188 64.300781 "/>
<path style=" stroke:none;fill-rule:nonzero;fill:rgb(100%,100%,100%);fill-opacity:1;" d="M 149.585938 51.535156 L 157.585938 51.535156 L 157.585938 64.535156 L 149.585938 64.535156 Z M 149.585938 51.535156 "/>
<g style="fill:rgb(0%,0%,100%);fill-opacity:1;">
  <use xlink:href="#glyph0-2" x="149.585938" y="61.436523"/>
</g>
</g>
</svg>

<svg xmlns="http://www.w3.org/2000/svg" xmlns:xlink="http://www.w3.org/1999/xlink" width="300pt" height="300pt" viewBox="0 0 300 300"><defs><symbol overflow="visible"><path d="M.547 1.938V-7.75h5.5v9.688zm.625-.61h4.266v-8.47H1.171zm0 0"/></symbol><symbol overflow="visible" id="a"><path d="M1.078-8.016h4.61v.907H2.171v2.36h3.172v.922H2.172V0H1.078zm0 0"/></symbol><symbol overflow="visible" id="b"><path d="M1.078-8.016h1.47l3.546 6.704v-6.704h1.062V0H5.688L2.124-6.703V0H1.078zm0 0"/></symbol><symbol overflow="visible" id="c"><path d="M1.078-8.016h1.094v3.282H6.11v-3.282h1.077V0H6.11v-3.813H2.17V0H1.078zm0 0"/></symbol></defs><g><path fill="#fff" d="M0 0h300v300H0z"/><path d="M35.25 174.512l13.72-2.145" stroke-width="1.2" stroke="#3cc" stroke-miterlimit="10" fill="none"/><path d="M48.97 172.367l13.718-2.14" stroke-width="1.2" stroke="#000" stroke-miterlimit="10" fill="none"/><path d="M28.25 168.012h7v13h-7zm0 0" fill="#fff"/><use xlink:href="#a" x="28.25" y="177.913" fill="#3cc"/><path d="M62.688 170.227L72.69 144.32M69.78 169.988l8.01-20.722M80.117 191.844l-17.43-21.617M72.69 144.32l13.72-2.14" stroke-width="1.2" stroke="#000" stroke-miterlimit="10" fill="none"/><path d="M86.41 142.18l13.72-2.145M100.13 140.035l8.714 10.81" stroke-width="1.2" stroke="#00f" stroke-miterlimit="10" fill="none"/><path d="M108.844 150.844l8.715 10.808" stroke-width="1.2" stroke="#000" stroke-miterlimit="10" fill="none"/><path d="M96.785 146.297l6.973 8.648" stroke-width="1.2" stroke="#00f" stroke-miterlimit="10" fill="none"/><path d="M103.758 154.945l6.972 8.65" stroke-width="1.2" stroke="#000" stroke-miterlimit="10" fill="none"/><path d="M96.13 133.535h8v13h-8zm0 0" fill="#fff"/><use xlink:href="#b" x="96.129" y="143.437" fill="#00f"/><path d="M117.56 161.652l-5 12.953" stroke-width="1.2" stroke="#000" stroke-miterlimit="10" fill="none"/><path d="M112.56 174.605l-5.005 12.954" stroke-width="1.2" stroke="#00f" stroke-miterlimit="10" fill="none"/><path d="M144.996 157.367l-28.19-.554 1.51 9.683zm0 0"/><path d="M107.555 187.56l-13.72 2.14" stroke-width="1.2" stroke="#00f" stroke-miterlimit="10" fill="none"/><path d="M93.836 189.7l-13.72 2.144" stroke-width="1.2" stroke="#000" stroke-miterlimit="10" fill="none"/><path d="M103.8 181.53l-10.972 1.716" stroke-width="1.2" stroke="#00f" stroke-miterlimit="10" fill="none"/><path d="M92.828 183.246l-10.976 1.71" stroke-width="1.2" stroke="#000" stroke-miterlimit="10" fill="none"/><path d="M103.555 181.06h8v13h-8zm0 0" fill="#fff"/><use xlink:href="#b" x="103.555" y="190.96" fill="#00f"/><path d="M144.996 157.367L150 144.414" stroke-width="1.2" stroke="#000" stroke-miterlimit="10" fill="none"/><path d="M150 144.414l5.004-12.953" stroke-width="1.2" stroke="#00f" stroke-miterlimit="10" fill="none"/><path d="M144.996 157.367l17.43 21.617" stroke-width="1.2" stroke="#000" stroke-miterlimit="10" fill="none"/><path d="M155.004 131.46l13.72-2.14" stroke-width="1.2" stroke="#00f" stroke-miterlimit="10" fill="none"/><path d="M168.723 129.32l13.718-2.144" stroke-width="1.2" stroke="#000" stroke-miterlimit="10" fill="none"/><path d="M147.004 124.96h17v13h-17zm0 0" fill="#fff"/><g fill="#00f"><use xlink:href="#b" x="147.004" y="134.862"/><use xlink:href="#c" x="154.987" y="134.862"/></g><path d="M182.44 127.176l8.716 10.808" stroke-width="1.2" stroke="#000" stroke-miterlimit="10" fill="none"/><path d="M191.156 137.984l8.715 10.81" stroke-width="1.2" stroke="#00f" stroke-miterlimit="10" fill="none"/><path d="M189.27 125.238l6.972 8.645" stroke-width="1.2" stroke="#000" stroke-miterlimit="10" fill="none"/><path d="M196.242 133.883l6.973 8.648" stroke-width="1.2" stroke="#00f" stroke-miterlimit="10" fill="none"/><path d="M192.445 101.273l-10.004 25.903" stroke-width="1.2" stroke="#000" stroke-miterlimit="10" fill="none"/><path d="M199.87 148.793l13.72-2.14" stroke-width="1.2" stroke="#00f" stroke-miterlimit="10" fill="none"/><path d="M213.59 146.652l13.72-2.144" stroke-width="1.2" stroke="#000" stroke-miterlimit="10" fill="none"/><path d="M195.87 142.293h8v13h-8zm0 0" fill="#fff"/><use xlink:href="#b" x="195.871" y="152.194" fill="#00f"/><path d="M227.31 144.508l8.713 10.808" stroke-width="1.2" stroke="#000" stroke-miterlimit="10" fill="none"/><path d="M236.023 155.316l8.715 10.81" stroke-width="1.2" stroke="#00f" stroke-miterlimit="10" fill="none"/><path d="M227.31 144.508l10.002-25.906M222.21 139.563l8.01-20.723" stroke-width="1.2" stroke="#000" stroke-miterlimit="10" fill="none"/><path d="M244.738 166.125l-5.004 12.953" stroke-width="1.2" stroke="#00f" stroke-miterlimit="10" fill="none"/><path d="M239.734 179.078l-5.004 12.95" stroke-width="1.2" stroke="#000" stroke-miterlimit="10" fill="none"/><path d="M236.738 159.625h17v13h-17zm0 0" fill="#fff"/><g fill="#00f"><use xlink:href="#b" x="236.738" y="169.526"/><use xlink:href="#c" x="244.722" y="169.526"/></g><path d="M234.73 192.027l7.54 11.664" stroke-width="1.2" stroke="#000" stroke-miterlimit="10" fill="none"/><path d="M242.27 203.69l7.535 11.662" stroke-width="1.2" stroke="#00f" stroke-miterlimit="10" fill="none"/><path d="M207.895 199.16l26.835-7.133M212.254 204.762l21.473-5.703" stroke-width="1.2" stroke="#000" stroke-miterlimit="10" fill="none"/><path d="M249.805 215.352l-17.52 21.543" stroke-width="1.2" stroke="#00f" stroke-miterlimit="10" fill="none"/><path d="M241.805 208.852h17v13h-17zm0 0" fill="#fff"/><g fill="#00f"><use xlink:href="#b" x="241.805" y="218.753"/><use xlink:href="#c" x="249.788" y="218.753"/></g><path d="M232.285 236.895l-12.953-5.004" stroke-width="1.2" stroke="#00f" stroke-miterlimit="10" fill="none"/><path d="M219.332 231.89l-12.95-5.003" stroke-width="1.2" stroke="#000" stroke-miterlimit="10" fill="none"/><path d="M232.05 229.797l-10.363-4" stroke-width="1.2" stroke="#00f" stroke-miterlimit="10" fill="none"/><path d="M221.688 225.797l-10.364-4.004" stroke-width="1.2" stroke="#000" stroke-miterlimit="10" fill="none"/><path d="M228.285 230.395h8v13h-8zm0 0" fill="#fff"/><use xlink:href="#b" x="228.285" y="240.296" fill="#00f"/><path d="M206.383 226.887l1.512-27.727M206.383 226.887l-23.324 15.078M237.313 118.602l-8.715-10.81" stroke-width="1.2" stroke="#000" stroke-miterlimit="10" fill="none"/><path d="M228.598 107.793l-8.715-10.81" stroke-width="1.2" stroke="#00f" stroke-miterlimit="10" fill="none"/><path d="M237.313 118.602l27.437-4.286" stroke-width="1.2" stroke="#000" stroke-miterlimit="10" fill="none"/><path d="M219.883 96.984l-13.72 2.145" stroke-width="1.2" stroke="#00f" stroke-miterlimit="10" fill="none"/><path d="M206.164 99.13l-13.72 2.143" stroke-width="1.2" stroke="#000" stroke-miterlimit="10" fill="none"/><path d="M218.148 103.87l-10.976 1.716" stroke-width="1.2" stroke="#00f" stroke-miterlimit="10" fill="none"/><path d="M207.172 105.586L196.2 107.3" stroke-width="1.2" stroke="#000" stroke-miterlimit="10" fill="none"/><path d="M215.883 90.484h8v13h-8zm0 0" fill="#fff"/><use xlink:href="#b" x="215.883" y="100.386" fill="#00f"/><path d="M192.445 101.273l-17.43-21.62M175.016 79.652L166.3 68.844" stroke-width="1.2" stroke="#000" stroke-miterlimit="10" fill="none"/><path d="M166.3 68.844l-8.714-10.81" stroke-width="1.2" stroke="#00f" stroke-miterlimit="10" fill="none"/><path d="M178.36 73.39l-6.973-8.648" stroke-width="1.2" stroke="#000" stroke-miterlimit="10" fill="none"/><path d="M171.387 64.742l-6.973-8.644" stroke-width="1.2" stroke="#00f" stroke-miterlimit="10" fill="none"/><path d="M168.188 81.594l-6.973-8.65" stroke-width="1.2" stroke="#000" stroke-miterlimit="10" fill="none"/><path d="M161.215 72.945l-6.973-8.644" stroke-width="1.2" stroke="#00f" stroke-miterlimit="10" fill="none"/><path d="M149.586 51.535h8v13h-8zm0 0" fill="#fff"/><use xlink:href="#b" x="149.586" y="61.437" fill="#00f"/></g></svg>
